dist/img/icons/main/calendar.svg

<svg width="20" height="19" viewBox="0 0 20 19" fill="none" xmlns="http://www.w3.org/2000/svg">
<path d="M16.6786 2.82153H14.8569V1.60718C14.8569 1.44614 14.7929 1.29171 14.6791 1.17784C14.5652 1.06397 14.4107 1 14.2497 1C14.0887 1 13.9342 1.06397 13.8204 1.17784C13.7065 1.29171 13.6425 1.44614 13.6425 1.60718V2.82153H6.35709V1.60718C6.35709 1.44614 6.29312 1.29171 6.17925 1.17784C6.06538 1.06397 5.91094 1 5.7499 1C5.58887 1 5.43443 1.06397 5.32056 1.17784C5.20669 1.29171 5.14272 1.44614 5.14272 1.60718V2.82153H3.32136C2.8383 2.82153 2.37503 3.01342 2.03346 3.35499C1.69189 3.69656 1.5 4.15982 1.5 4.64287L1.5 16.1787C1.5 16.6617 1.69189 17.125 2.03346 17.4665C2.37503 17.8081 2.8383 18 3.32136 18H16.6786C17.1617 18 17.625 17.8081 17.9665 17.4665C18.3081 17.125 18.5 16.6617 18.5 16.1787V4.64287C18.5 4.15982 18.3081 3.69656 17.9665 3.35499C17.625 3.01342 17.1617 2.82153 16.6786 2.82153ZM17.2856 16.1783C17.2856 16.3393 17.2217 16.4936 17.1078 16.6075C16.994 16.7213 16.8396 16.7853 16.6786 16.7853H3.32136C3.16038 16.7853 3.00599 16.7213 2.89215 16.6075C2.77832 16.4936 2.71437 16.3393 2.71437 16.1783V8.28594H17.2856V16.1783ZM17.2856 7.07119H2.71437V4.64287C2.71468 4.48209 2.77877 4.328 2.89256 4.21442C3.00636 4.10085 3.16058 4.03706 3.32136 4.03706H5.14272V5.25141C5.14272 5.41245 5.20669 5.56688 5.32056 5.68075C5.43443 5.79462 5.58887 5.85859 5.7499 5.85859C5.91094 5.85859 6.06538 5.79462 6.17925 5.68075C6.29312 5.56688 6.35709 5.41245 6.35709 5.25141V4.03706H13.6429V5.25141C13.6429 5.41245 13.7069 5.56688 13.8208 5.68075C13.9346 5.79462 14.0891 5.85859 14.2501 5.85859C14.4111 5.85859 14.5656 5.79462 14.6794 5.68075C14.7933 5.56688 14.8573 5.41245 14.8573 5.25141V4.03706H16.6786C16.8396 4.03706 16.994 4.10101 17.1078 4.21484C17.2217 4.32867 17.2856 4.48306 17.2856 4.64404V7.07275V7.07119Z" fill="#161C25"/>
</svg>

<svg width="20" height="19" fill="none" xmlns="http://www.w3.org/2000/svg"><path d="M16.679 2.822h-1.822V1.607a.607.607 0 00-1.214 0v1.215H6.357V1.607a.607.607 0 10-1.214 0v1.215H3.32a1.821 1.821 0 00-1.82 1.82V16.18A1.821 1.821 0 003.321 18H16.68a1.821 1.821 0 001.821-1.821V4.643a1.821 1.821 0 00-1.821-1.821zm.607 13.356a.607.607 0 01-.607.607H3.32a.607.607 0 01-.607-.607V8.286h14.572v7.892zm0-9.107H2.714V4.643a.607.607 0 01.607-.606h1.822v1.214a.607.607 0 101.214 0V4.037h7.286v1.214a.607.607 0 001.214 0V4.037h1.822a.607.607 0 01.607.607v2.429-.002z" fill="#161C25"/></svg>
